app/images/adsales-icon.svg

<svg xmlns="http://www.w3.org/2000/svg" viewBox="0 0 50 50" enable-background="new 0 0 50 50"><path fill="#fff" d="M50 21c0-9.8-2.9-17.8-6.4-17.8h-4.1s-9.5 7.1-23.2 9.9c-.4 2.2-.7 4.8-.7 7.9 0 3 .3 5.7.7 7.9 13.7 2.8 23.2 9.9 23.2 9.9h4.1c3.5-.1 6.4-8 6.4-17.8m-7.8 15.1c-.5 0-1-.5-1.2-.8-.6-.7-1.2-1.8-1.7-3.1-1.1-3-1.8-7-1.8-11.3 0-4.3.6-8.3 1.8-11.3.5-1.3 1.1-2.4 1.7-3.1.3-.3.8-.8 1.2-.8.5 0 1 .5 1.2.8.6.7 1.2 1.8 1.7 3.1 1.1 3 1.8 7 1.8 11.3 0 4.3-.6 8.3-1.8 11.3-.5 1.3-1.1 2.4-1.7 3.1-.2.3-.7.8-1.2.8m-29.9-15.1c0-2.5.2-5 .5-7.3-2.3.3-4.3.5-6.8.5h-3.3l-2.7 4.6v4.3l2.7 4.6h3.3c2.5 0 4.5.2 6.9.5-.4-2.2-.6-4.7-.6-7.2m5.7 10.4l-6.2-1.2 4 15.7c.2.8 1 1.2 1.8.9l5.8-2.3c.8-.3 1.1-1.2.7-1.9l-6.1-11.2zm24.2-4.6c-.2 0-.4-.2-.5-.3-.2-.3-.5-.7-.7-1.2-.4-1.2-.7-2.7-.7-4.4 0-1.7.2-3.2.7-4.4.2-.5.4-.9.7-1.2.1-.1.3-.3.5-.3s.4.2.5.3c.2.3.5.7.7 1.2.4 1.2.7 2.7.7 4.4 0 1.7-.2 3.2-.7 4.4-.2.5-.4.9-.7 1.2-.1.1-.3.3-.5.3"/></svg>

<?xml version="1.0" encoding="utf-8"?>
<!-- Generator: Adobe Illustrator 17.1.0, SVG Export Plug-In . SVG Version: 6.00 Build 0)  -->
<!DOCTYPE svg PUBLIC "-//W3C//DTD SVG 1.1//EN" "http://www.w3.org/Graphics/SVG/1.1/DTD/svg11.dtd">
<svg version="1.1" id="Layer_1" xmlns="http://www.w3.org/2000/svg" xmlns:xlink="http://www.w3.org/1999/xlink" x="0px" y="0px"
	 viewBox="0 0 50 50" enable-background="new 0 0 50 50" xml:space="preserve">
<path fill="#FFFFFF" d="M50,21c0-9.8-2.9-17.8-6.4-17.8c0,0,0,0,0,0h-4.1c0,0-9.5,7.1-23.2,9.9c-0.4,2.2-0.7,4.8-0.7,7.9
	c0,3,0.3,5.7,0.7,7.9c13.7,2.8,23.2,9.9,23.2,9.9h4.1c0,0,0,0,0,0C47.1,38.7,50,30.8,50,21 M42.2,36.1c-0.5,0-1-0.5-1.2-0.8
	c-0.6-0.7-1.2-1.8-1.7-3.1c-1.1-3-1.8-7-1.8-11.3c0-4.3,0.6-8.3,1.8-11.3c0.5-1.3,1.1-2.4,1.7-3.1c0.3-0.3,0.8-0.8,1.2-0.8
	c0.5,0,1,0.5,1.2,0.8c0.6,0.7,1.2,1.8,1.7,3.1c1.1,3,1.8,7,1.8,11.3c0,4.3-0.6,8.3-1.8,11.3c-0.5,1.3-1.1,2.4-1.7,3.1
	C43.2,35.6,42.7,36.1,42.2,36.1 M12.3,21c0-2.5,0.2-5,0.5-7.3C10.5,14,8.5,14.2,6,14.2H2.7L0,18.8v4.3l2.7,4.6H6
	c2.5,0,4.5,0.2,6.9,0.5C12.5,26,12.3,23.5,12.3,21 M18,31.4l-6.2-1.2l4,15.7c0.2,0.8,1,1.2,1.8,0.9l5.8-2.3c0.8-0.3,1.1-1.2,0.7-1.9
	L18,31.4z M42.2,26.8c-0.2,0-0.4-0.2-0.5-0.3c-0.2-0.3-0.5-0.7-0.7-1.2c-0.4-1.2-0.7-2.7-0.7-4.4c0-1.7,0.2-3.2,0.7-4.4
	c0.2-0.5,0.4-0.9,0.7-1.2c0.1-0.1,0.3-0.3,0.5-0.3c0.2,0,0.4,0.2,0.5,0.3c0.2,0.3,0.5,0.7,0.7,1.2c0.4,1.2,0.7,2.7,0.7,4.4
	c0,1.7-0.2,3.2-0.7,4.4c-0.2,0.5-0.4,0.9-0.7,1.2C42.6,26.6,42.4,26.8,42.2,26.8"/>
</svg>
